X:1
T:Title
%%score { ( 1 3 ) | ( 2 4 ) }
L:1/8
M:4/4
K:Eb
V:1 treble nm="Grand Piano"
V:3 treble 
V:2 bass 
V:4 bass 
V:1
 z4 z2[Q:1/4=100] G2 | G3 G _G=GAG | E6 G2 | B3 A F2 =EF | A3 G E2 B,2 | G3 B BBcB | A4- AAGF | %7
 z2 .FD/E/ G3 F |[M:3/4] E6 |[M:1/4][K:bass] B,,2 |[M:4/4] z2[K:treble] B2 A2[K:bass] B,,2 | %11
 z2[K:treble] B2 G2 [GB]2 | c4- cBAG |[M:9/8] F2 [E=A]- [EA] [DB]2- [DB][K:bass] B,,2 | %14
[M:4/4] z2[K:treble] B2 e2 B,2 |[M:9/8] z2 c- c e2- e[K:bass] C,2 | %16
[M:4/4] z2[K:treble] G2 G[B,EG][CE_G][B,E=G] |[M:9/8] [DA]3 [B,D]3 [G,B,E]3 |] %18
V:2
 z4 z2 B,2 | B,3 B, =A,B,CB, | G,6 B,2 | D3 C A,2 G,A, | C3 B, G,2 G,2 | B,3[K:treble] _D DDED | %6
 C4- CC[K:bass]B,A, | z2 .A,F,/G,/ B,3 A, |[M:3/4] G,6 |[M:1/4] z2 | %10
[M:4/4] z2[K:treble] [B,D]2 [DF]2 z2 | z2 [EG]2[K:bass] [B,E]2 [E,E]2 | %12
 [A,EA]4- [A,EA][K:bass][G,B,E][F,B,D][E,B,E] | %13
[M:9/8] [D,B,]2 [C,F,]- [C,F,] [B,,F,]2- [B,,F,] z z |[M:4/4] z2[K:treble] [EG]2 [B,G]2 z2 | %15
[M:9/8] z2 [EA]- [EA] [CA]2- [CA] z z |[M:4/4] z2[K:bass] [B,E]2 [B,E]B,,=A,,B,, | %17
[M:9/8] [=B,,F,]3 [_B,,A,]3 [E,,E,]3 |] %18
V:3
 x8 | x8 | x8 | x8 | x8 | x8 | x8 | E2- E<.E z4 |[M:3/4] x6 |[M:1/4][K:bass] x2 | %10
[M:4/4] F,6[K:treble][K:bass] z2 | G,6[K:treble] z2 | x8 |[M:9/8] x7[K:bass] x2 | %14
[M:4/4] G,6[K:treble] z2 |[M:9/8] A,6- A,[K:bass] z z |[M:4/4] B,,6[K:treble] z2 |[M:9/8] x9 |] %18
V:4
 x8 | x8 | x8 | x8 | x8 | x3[K:treble] x5 | x6[K:bass] x2 | G,2- G,<.G, z4 |[M:3/4] x6 | %9
[M:1/4] x2 |[M:4/4] x2[K:treble] x6 | x4[K:bass] x4 | x5[K:bass] x3 |[M:9/8] x9 | %14
[M:4/4] x2[K:treble] x6 |[M:9/8] x9 |[M:4/4] x2[K:bass] x6 |[M:9/8] x9 |] %18

